X:176
T:Hungarian March, The
M:2/4
L:1/8
B:Thompson's Compleat Collection of 200 Favourite Country Dances, vol. 1 (London, 1757)
Z:Transcribed and edited by Flynn Titford-Mock, 2007
Z:abc's:AK/Fiddler's Companion
K:D
A|dd/f/ ee/g/|fa a2|fe/d/ fe/d/|e2 AA|dd/f/ ee/g/|fa a2|fe/d/ ed/c/|d2 D:|
|:e|ff/a/ eA/g/|ff/a/ eA/g/|fe/d/ fe/d/|e2 Ae|ff/a/ eA/g/|fe/d/ ed/c/|d2 D:|

